src/lib/packages/icons/src/assets/line/line-up-square.svg

<svg width="24" height="24" viewBox="0 0 24 24" fill="none" xmlns="http://www.w3.org/2000/svg">
<path d="M17.625 2.25H6.375C3.715 2.25 2.25 3.715 2.25 6.375V17.625C2.25 20.285 3.715 21.75 6.375 21.75H17.625C20.285 21.75 21.75 20.285 21.75 17.625V6.375C21.75 3.715 20.285 2.25 17.625 2.25ZM20.25 17.625C20.25 19.465 19.465 20.25 17.625 20.25H6.375C4.535 20.25 3.75 19.465 3.75 17.625V6.375C3.75 4.535 4.535 3.75 6.375 3.75H17.625C19.465 3.75 20.25 4.535 20.25 6.375V17.625ZM17.692 9.40894C17.73 9.50094 17.75 9.59804 17.75 9.69604V12.5759C17.75 12.9899 17.414 13.3259 17 13.3259C16.586 13.3259 16.25 12.9899 16.25 12.5759V11.5061L13.982 13.7739C13.373 14.3829 12.309 14.3839 11.699 13.7739L10.225 12.3C10.187 12.262 10.101 12.262 10.063 12.3L7.52899 14.834C7.38299 14.98 7.19099 15.054 6.99899 15.054C6.80699 15.054 6.61499 14.981 6.46899 14.834C6.17599 14.541 6.17599 14.0659 6.46899 13.7729L9.00299 11.239C9.63099 10.61 10.656 10.609 11.286 11.239L12.76 12.7129C12.805 12.7569 12.877 12.7579 12.922 12.7129L15.19 10.4451H14.12C13.706 10.4451 13.37 10.1091 13.37 9.69507C13.37 9.28107 13.706 8.94507 14.12 8.94507H17C17.098 8.94507 17.195 8.96493 17.287 9.00293C17.47 9.07993 17.616 9.22594 17.692 9.40894Z" fill="currentColor"/>
</svg>

<svg xmlns="http://www.w3.org/2000/svg" width="24" height="24" fill="none"><path fill="currentColor" d="M17.625 2.25H6.375c-2.66 0-4.125 1.465-4.125 4.125v11.25c0 2.66 1.465 4.125 4.125 4.125h11.25c2.66 0 4.125-1.465 4.125-4.125V6.375c0-2.66-1.465-4.125-4.125-4.125Zm2.625 15.375c0 1.84-.785 2.625-2.625 2.625H6.375c-1.84 0-2.625-.785-2.625-2.625V6.375c0-1.84.785-2.625 2.625-2.625h11.25c1.84 0 2.625.785 2.625 2.625v11.25Zm-2.558-8.216a.75.75 0 0 1 .058.287v2.88a.75.75 0 0 1-1.5 0v-1.07l-2.268 2.268c-.609.609-1.673.61-2.283 0L10.225 12.3c-.038-.038-.124-.038-.162 0l-2.534 2.534a.748.748 0 0 1-1.06 0 .75.75 0 0 1 0-1.061l2.534-2.534a1.616 1.616 0 0 1 2.283 0l1.474 1.474a.115.115 0 0 0 .162 0l2.268-2.268h-1.07a.75.75 0 0 1 0-1.5H17a.75.75 0 0 1 .692.464Z"/></svg>
